X: 25470
T: Marching Through Batheaston
R: jig
M: 6/8
K: Amajor
cee gdd|fdd edd|cee gdd|faf e2 d|
cee gdd|fdd edd|dcB cBA|B>cB A3:|
K:Ador
{f}a3 (3fef d|B>AB d2 A|B>AB d2 e|faf e2 f|
a3 (3fef d|B>AB d2 A|B>AB A3:|

